icons/npmlock.svg

<svg width="16" height="16" viewBox="0 0 16 16" fill="none" xmlns="http://www.w3.org/2000/svg">
<path d="M4 4H12V12H10.5V6H7.5V12H4V4ZM12.5 2.45H3.5C3.23478 2.45 2.98043 2.55535 2.79289 2.74289C2.60536 2.93043 2.5 3.18478 2.5 3.45V12.45C2.49322 12.5855 2.51407 12.7209 2.56127 12.8481C2.60848 12.9752 2.68107 13.0914 2.77461 13.1897C2.86815 13.2879 2.9807 13.366 3.1054 13.4194C3.23011 13.4727 3.36436 13.5002 3.5 13.5H12.5C12.6398 13.5072 12.7795 13.4849 12.9102 13.4347C13.0408 13.3845 13.1595 13.3074 13.2584 13.2084C13.3574 13.1094 13.4345 12.9908 13.4847 12.8602C13.5349 12.7295 13.5572 12.5898 13.55 12.45V3.45C13.5502 3.31436 13.5227 3.18011 13.4694 3.0554C13.416 2.9307 13.3379 2.81815 13.2397 2.72461C13.1414 2.63106 13.0252 2.55848 12.8981 2.51127C12.7709 2.46406 12.6355 2.44321 12.5 2.45" fill="#909090" fill-opacity="0.9"/>
</svg>

<svg xmlns="http://www.w3.org/2000/svg" width="16" height="16" fill="none" viewBox="0 0 16 16"><path fill="#909090" fill-opacity=".9" d="M4 4h8v8h-1.5V6h-3v6H4zm8.5-1.55h-9a1 1 0 0 0-1 1v9a1 1 0 0 0 1 1.05h9a1 1 0 0 0 1.05-1.05v-9a1 1 0 0 0-1.05-1"/></svg>
